Newaita-dark/apps/64/virtualbox.svg

<?xml version="1.0" encoding="UTF-8"?>
<svg xmlns="http://www.w3.org/2000/svg" xmlns:xlink="http://www.w3.org/1999/xlink" width="64px" height="64px" viewBox="0 0 64 64" version="1.1">
<defs>
<linearGradient id="linear0" gradientUnits="userSpaceOnUse" x1="254" y1="233.5" x2="254" y2="254.666672" gradientTransform="matrix(0.125012,0,0,0.125012,-0.00000763012,26.87757)">
<stop offset="0" style="stop-color:rgb(0%,0%,0%);stop-opacity:0.27451;"/>
<stop offset="1" style="stop-color:rgb(0%,0%,0%);stop-opacity:0;"/>
</linearGradient>
<radialGradient id="radial0" gradientUnits="userSpaceOnUse" cx="450.908936" cy="189.579361" fx="450.908936" fy="189.579361" r="21.166656" gradientTransform="matrix(0.000000348341,-0.156265,-0.281277,-0.000000203077,106.24586,127.190665)">
<stop offset="0" style="stop-color:rgb(0%,0%,0%);stop-opacity:0.313726;"/>
<stop offset="0.222222" style="stop-color:rgb(0%,0%,0%);stop-opacity:0.27451;"/>
<stop offset="1" style="stop-color:rgb(0%,0%,0%);stop-opacity:0;"/>
</radialGradient>
<radialGradient id="radial1" gradientUnits="userSpaceOnUse" cx="450.908936" cy="189.579361" fx="450.908936" fy="189.579361" r="21.166656" gradientTransform="matrix(-0.000000348341,0.156265,0.281277,0.000000203077,-42.409041,-15.054958)">
<stop offset="0" style="stop-color:rgb(0%,0%,0%);stop-opacity:0.313726;"/>
<stop offset="0.222222" style="stop-color:rgb(0%,0%,0%);stop-opacity:0.27451;"/>
<stop offset="1" style="stop-color:rgb(0%,0%,0%);stop-opacity:0;"/>
</radialGradient>
<radialGradient id="radial2" gradientUnits="userSpaceOnUse" cx="450.908936" cy="189.579361" fx="450.908936" fy="189.579361" r="21.166656" gradientTransform="matrix(-0.000000348341,-0.156265,0.281277,-0.000000203077,-42.409041,127.190665)">
<stop offset="0" style="stop-color:rgb(0%,0%,0%);stop-opacity:0.313726;"/>
<stop offset="0.222222" style="stop-color:rgb(0%,0%,0%);stop-opacity:0.27451;"/>
<stop offset="1" style="stop-color:rgb(0%,0%,0%);stop-opacity:0;"/>
</radialGradient>
<radialGradient id="radial3" gradientUnits="userSpaceOnUse" cx="450.908936" cy="189.579361" fx="450.908936" fy="189.579361" r="21.166656" gradientTransform="matrix(0.000000348341,0.156265,-0.281277,0.000000203077,106.245857,-15.054959)">
<stop offset="0" style="stop-color:rgb(0%,0%,0%);stop-opacity:0.313726;"/>
<stop offset="0.222222" style="stop-color:rgb(0%,0%,0%);stop-opacity:0.27451;"/>
<stop offset="1" style="stop-color:rgb(0%,0%,0%);stop-opacity:0;"/>
</radialGradient>
<linearGradient id="linear1" gradientUnits="userSpaceOnUse" x1="254" y1="233.5" x2="254" y2="-168.666672" gradientTransform="matrix(0.125012,0,0,0.125012,0,26.877566)">
<stop offset="0" style="stop-color:rgb(9.803922%,46.27451%,82.352942%);stop-opacity:1;"/>
<stop offset="1" style="stop-color:rgb(11.764706%,53.333336%,89.803922%);stop-opacity:1;"/>
</linearGradient>
<linearGradient id="linear2" gradientUnits="userSpaceOnUse" x1="275.166656" y1="233.5" x2="275.166656" y2="-168.666656" gradientTransform="matrix(0.125012,0,0,0.125012,0,26.877566)">
<stop offset="0" style="stop-color:rgb(74.117649%,74.117649%,74.117649%);stop-opacity:1;"/>
<stop offset="1" style="stop-color:rgb(87.843138%,87.843138%,87.843138%);stop-opacity:1;"/>
</linearGradient>
</defs>
<g id="surface1">
<path style=" stroke:none;fill-rule:nonzero;fill:url(#linear0);" d="M 10.253906 56.066406 L 53.582031 56.066406 L 53.582031 58.714844 L 10.253906 58.714844 Z M 10.253906 56.066406 "/>
<path style=" stroke:none;fill-rule:nonzero;fill:url(#radial0);" d="M 53.582031 56.066406 L 58.875 56.066406 L 58.875 53.421875 L 53.582031 53.421875 Z M 53.582031 56.066406 "/>
<path style=" stroke:none;fill-rule:nonzero;fill:url(#radial1);" d="M 10.253906 56.066406 L 4.960938 56.066406 L 4.960938 58.714844 L 10.253906 58.714844 Z M 10.253906 56.066406 "/>
<path style=" stroke:none;fill-rule:nonzero;fill:url(#radial2);" d="M 10.253906 56.066406 L 4.960938 56.066406 L 4.960938 53.421875 L 10.253906 53.421875 Z M 10.253906 56.066406 "/>
<path style=" stroke:none;fill-rule:nonzero;fill:url(#radial3);" d="M 53.582031 56.066406 L 58.875 56.066406 L 58.875 58.714844 L 53.582031 58.714844 Z M 53.582031 56.066406 "/>
<path style=" stroke:none;fill-rule:nonzero;fill:url(#linear1);" d="M 7.277344 5.792969 L 56.230469 5.792969 C 57.324219 5.792969 58.214844 6.679688 58.214844 7.777344 L 58.214844 54.082031 C 58.214844 55.179688 57.324219 56.066406 56.230469 56.066406 L 7.277344 56.066406 C 6.179688 56.066406 5.292969 55.179688 5.292969 54.082031 L 5.292969 7.777344 C 5.292969 6.679688 6.179688 5.792969 7.277344 5.792969 Z M 7.277344 5.792969 "/>
<path style=" stroke:none;fill-rule:nonzero;fill:rgb(100%,100%,100%);fill-opacity:0.392157;" d="M 7.277344 5.792969 C 6.175781 5.792969 5.292969 6.675781 5.292969 7.777344 L 5.292969 8.109375 C 5.292969 7.007812 6.175781 6.121094 7.277344 6.121094 L 56.230469 6.121094 C 57.328125 6.121094 58.214844 7.007812 58.214844 8.109375 L 58.214844 7.777344 C 58.214844 6.675781 57.328125 5.792969 56.230469 5.792969 Z M 7.277344 5.792969 "/>
<path style=" stroke:none;fill-rule:nonzero;fill:rgb(1.176471%,1.176471%,1.176471%);fill-opacity:0.235294;" d="M 7.277344 56.066406 C 6.175781 56.066406 5.292969 55.183594 5.292969 54.082031 L 5.292969 53.753906 C 5.292969 54.851562 6.175781 55.738281 7.277344 55.738281 L 56.230469 55.738281 C 57.328125 55.738281 58.214844 54.851562 58.214844 53.753906 L 58.214844 54.082031 C 58.214844 55.183594 57.328125 56.066406 56.230469 56.066406 Z M 7.277344 56.066406 "/>
<path style=" stroke:none;fill-rule:nonzero;fill:rgb(12.941177%,12.941177%,12.941177%);fill-opacity:1;" d="M 7.277344 5.605469 C 6.078125 5.605469 5.105469 6.578125 5.105469 7.777344 L 5.105469 54.082031 C 5.105469 55.285156 6.078125 56.253906 7.277344 56.253906 L 56.230469 56.253906 C 57.429688 56.253906 58.402344 55.285156 58.402344 54.082031 L 58.402344 7.777344 C 58.402344 6.578125 57.429688 5.605469 56.230469 5.605469 Z M 7.277344 5.980469 L 56.230469 5.980469 C 57.226562 5.980469 58.027344 6.777344 58.027344 7.777344 L 58.027344 54.082031 C 58.027344 55.082031 57.226562 55.878906 56.230469 55.878906 L 7.277344 55.878906 C 6.277344 55.878906 5.480469 55.082031 5.480469 54.082031 L 5.480469 7.777344 C 5.480469 6.777344 6.277344 5.980469 7.277344 5.980469 Z M 7.277344 5.980469 "/>
<path style=" stroke:none;fill-rule:evenodd;fill:url(#linear2);" d="M 31.703125 14.503906 C 30.875 14.523438 30.160156 15.085938 29.945312 15.882812 L 23.773438 38.511719 L 20.324219 26.445312 C 20.09375 25.640625 19.359375 25.085938 18.523438 25.085938 L 13.230469 25.085938 C 12.554688 25.074219 11.925781 25.429688 11.585938 26.015625 C 11.242188 26.601562 11.242188 27.320312 11.585938 27.90625 C 11.925781 28.492188 12.554688 28.84375 13.230469 28.835938 L 17.109375 28.835938 L 22.011719 46 C 22.242188 46.808594 22.984375 47.363281 23.824219 47.359375 C 24.667969 47.351562 25.402344 46.789062 25.625 45.976562 L 31.472656 24.535156 L 33.882812 36.589844 C 34.054688 37.445312 34.792969 38.070312 35.664062 38.097656 C 36.535156 38.125 37.308594 37.546875 37.535156 36.707031 L 40.816406 24.398438 L 43.148438 35.292969 C 43.335938 36.15625 44.097656 36.773438 44.984375 36.773438 L 50.277344 36.773438 C 50.953125 36.785156 51.582031 36.429688 51.921875 35.84375 C 52.261719 35.261719 52.261719 34.539062 51.921875 33.953125 C 51.582031 33.371094 50.953125 33.015625 50.277344 33.023438 L 46.5 33.023438 L 42.847656 15.984375 C 42.664062 15.136719 41.925781 14.523438 41.0625 14.503906 C 40.195312 14.480469 39.425781 15.054688 39.203125 15.894531 L 35.984375 27.964844 L 33.59375 16.007812 C 33.414062 15.113281 32.613281 14.476562 31.703125 14.503906 Z M 31.703125 14.503906 "/>
<path style=" stroke:none;fill-rule:evenodd;fill:rgb(97.254902%,97.254902%,97.254902%);fill-opacity:1;" d="M 31.703125 14.503906 C 30.875 14.523438 30.160156 15.085938 29.945312 15.882812 L 23.773438 38.511719 L 20.324219 26.445312 C 20.09375 25.640625 19.359375 25.085938 18.523438 25.085938 L 13.230469 25.085938 C 12.648438 25.078125 12.097656 25.339844 11.734375 25.796875 C 11.375 26.253906 11.246094 26.851562 11.386719 27.414062 C 11.597656 26.570312 12.359375 25.984375 13.230469 25.992188 L 18.523438 25.992188 C 19.359375 25.992188 20.09375 26.546875 20.324219 27.355469 L 23.773438 39.417969 L 29.945312 16.792969 C 30.160156 15.992188 30.875 15.433594 31.703125 15.410156 C 32.613281 15.386719 33.414062 16.023438 33.59375 16.917969 L 35.984375 28.875 L 39.203125 16.800781 C 39.425781 15.964844 40.195312 15.390625 41.0625 15.410156 C 41.925781 15.433594 42.664062 16.042969 42.847656 16.890625 L 46.5 33.933594 L 50.277344 33.933594 C 51.144531 33.921875 51.910156 34.507812 52.121094 35.351562 C 52.261719 34.789062 52.132812 34.191406 51.769531 33.734375 C 51.410156 33.277344 50.855469 33.015625 50.277344 33.023438 L 46.5 33.023438 L 42.847656 15.984375 C 42.664062 15.136719 41.925781 14.523438 41.0625 14.503906 C 40.195312 14.480469 39.425781 15.054688 39.203125 15.894531 L 35.984375 27.964844 L 33.59375 16.007812 C 33.414062 15.113281 32.613281 14.476562 31.703125 14.503906 Z M 31.703125 14.503906 "/>
<path style=" stroke:none;fill-rule:evenodd;fill:rgb(0%,0%,0%);fill-opacity:0.235294;" d="M 40.816406 24.511719 L 37.535156 36.816406 C 37.308594 37.660156 36.535156 38.234375 35.664062 38.207031 C 34.792969 38.179688 34.054688 37.558594 33.882812 36.703125 L 31.472656 24.644531 L 25.625 46.089844 C 25.402344 46.902344 24.667969 47.464844 23.824219 47.46875 C 22.984375 47.476562 22.242188 46.917969 22.011719 46.109375 L 17.109375 28.949219 L 13.230469 28.949219 C 12.398438 28.960938 11.65625 28.417969 11.414062 27.625 C 11.238281 28.195312 11.34375 28.820312 11.703125 29.300781 C 12.0625 29.777344 12.632812 30.058594 13.230469 30.050781 L 17.109375 30.050781 L 22.011719 47.210938 C 22.242188 48.019531 22.984375 48.578125 23.824219 48.570312 C 24.667969 48.566406 25.402344 48.003906 25.625 47.191406 L 31.472656 25.746094 L 33.882812 37.804688 C 34.054688 38.660156 34.792969 39.28125 35.664062 39.308594 C 36.535156 39.335938 37.308594 38.761719 37.535156 37.917969 L 40.816406 25.613281 L 43.148438 36.507812 C 43.335938 37.371094 44.097656 37.988281 44.984375 37.988281 L 50.277344 37.988281 C 50.875 37.996094 51.441406 37.71875 51.800781 37.238281 C 52.160156 36.757812 52.269531 36.136719 52.09375 35.5625 C 51.847656 36.359375 51.109375 36.898438 50.277344 36.886719 L 44.984375 36.886719 C 44.097656 36.886719 43.335938 36.269531 43.148438 35.40625 Z M 40.816406 24.511719 "/>
<path style="fill:none;stroke-width:3;stroke-linecap:round;stroke-linejoin:round;stroke:rgb(12.941177%,12.941177%,12.941177%);stroke-opacity:1;stroke-miterlimit:4;" d="M 253.600782 -98.979829 C 246.976415 -98.823594 241.258211 -94.324024 239.539625 -87.949633 L 190.16934 93.064331 L 162.578225 -3.457701 C 160.734651 -9.894587 154.860212 -14.331663 148.17335 -14.331663 L 105.833643 -14.331663 C 100.42791 -14.425404 95.39714 -11.581925 92.67865 -6.894873 C 89.928912 -2.207821 89.928912 3.54163 92.67865 8.228683 C 95.39714 12.915735 100.42791 15.727967 105.833643 15.665473 L 136.86193 15.665473 L 176.076935 152.964861 C 177.920509 159.432993 183.857442 163.87007 190.575551 163.838823 C 197.324906 163.776329 203.199345 159.276758 204.980425 152.777379 L 251.757208 -18.737492 L 271.036617 77.690799 C 272.411486 84.533896 278.317172 89.533419 285.285257 89.752148 C 292.253341 89.970877 298.44025 85.346318 300.252577 78.62821 L 326.500071 -19.831138 L 345.154539 67.31679 C 346.654396 74.222381 352.747564 79.159409 359.840637 79.159409 L 402.180344 79.159409 C 407.586077 79.25315 412.616847 76.409672 415.335337 71.722619 C 418.053828 67.066814 418.053828 61.286116 415.335337 56.599064 C 412.616847 51.943258 407.586077 49.09978 402.180344 49.162274 L 371.964479 49.162274 L 342.748519 -87.13721 C 341.279909 -93.917813 335.374223 -98.823594 328.468633 -98.979829 C 321.531795 -99.167311 315.376133 -94.574 313.595053 -87.855892 L 287.847512 8.697388 L 268.724338 -86.949728 C 267.286975 -94.105295 260.881337 -99.198558 253.600782 -98.979829 Z M 253.600782 -98.979829 " transform="matrix(0.125012,0,0,0.125012,0,26.877566)"/>
</g>
</svg>

<svg xmlns="http://www.w3.org/2000/svg" width="64pt" height="64pt" viewBox="0 0 64 64"><defs><linearGradient id="a" gradientUnits="userSpaceOnUse" x1="254" y1="233.5" x2="254" y2="254.667" gradientTransform="translate(0 26.878) scale(.12501)"><stop offset="0" stop-opacity=".275"/><stop offset="1" stop-opacity="0"/></linearGradient><radialGradient id="b" gradientUnits="userSpaceOnUse" cx="450.909" cy="189.579" fx="450.909" fy="189.579" r="21.167" gradientTransform="matrix(0 -.15626 -.28128 0 106.246 127.19)"><stop offset="0" stop-opacity=".314"/><stop offset=".222" stop-opacity=".275"/><stop offset="1" stop-opacity="0"/></radialGradient><radialGradient id="c" gradientUnits="userSpaceOnUse" cx="450.909" cy="189.579" fx="450.909" fy="189.579" r="21.167" gradientTransform="matrix(0 .15626 .28128 0 -42.409 -15.055)"><stop offset="0" stop-opacity=".314"/><stop offset=".222" stop-opacity=".275"/><stop offset="1" stop-opacity="0"/></radialGradient><radialGradient id="d" gradientUnits="userSpaceOnUse" cx="450.909" cy="189.579" fx="450.909" fy="189.579" r="21.167" gradientTransform="matrix(0 -.15626 .28128 0 -42.409 127.19)"><stop offset="0" stop-opacity=".314"/><stop offset=".222" stop-opacity=".275"/><stop offset="1" stop-opacity="0"/></radialGradient><radialGradient id="e" gradientUnits="userSpaceOnUse" cx="450.909" cy="189.579" fx="450.909" fy="189.579" r="21.167" gradientTransform="matrix(0 .15626 -.28128 0 106.246 -15.055)"><stop offset="0" stop-opacity=".314"/><stop offset=".222" stop-opacity=".275"/><stop offset="1" stop-opacity="0"/></radialGradient><linearGradient id="f" gradientUnits="userSpaceOnUse" x1="254" y1="233.5" x2="254" y2="-168.667" gradientTransform="translate(0 26.878) scale(.12501)"><stop offset="0" stop-color="#1976d2"/><stop offset="1" stop-color="#1e88e5"/></linearGradient><linearGradient id="g" gradientUnits="userSpaceOnUse" x1="254" y1="-105.167" x2="254" y2="170"><stop offset="0" stop-color="#bdbdbd"/><stop offset="1" stop-color="#e0e0e0"/></linearGradient></defs><path d="M10.254 56.066h43.328v2.649H10.254zm0 0" fill="url(#a)"/><path d="M53.582 56.066h5.293v-2.644h-5.293zm0 0" fill="url(#b)"/><path d="M10.254 56.066H4.96v2.649h5.293zm0 0" fill="url(#c)"/><path d="M10.254 56.066H4.96v-2.644h5.293zm0 0" fill="url(#d)"/><path d="M53.582 56.066h5.293v2.649h-5.293zm0 0" fill="url(#e)"/><path d="M7.277 5.793H56.23c1.094 0 1.985.887 1.985 1.984v46.305c0 1.098-.89 1.984-1.985 1.984H7.277a1.982 1.982 0 0 1-1.984-1.984V7.777c0-1.097.887-1.984 1.984-1.984zm0 0" fill="url(#f)"/><path d="M7.277 5.793a1.977 1.977 0 0 0-1.984 1.984v.332a1.98 1.98 0 0 1 1.984-1.988H56.23c1.098 0 1.985.887 1.985 1.988v-.332a1.98 1.98 0 0 0-1.985-1.984zm0 0" fill="#fff" fill-opacity=".392"/><path d="M7.277 56.066a1.977 1.977 0 0 1-1.984-1.984v-.328a1.98 1.98 0 0 0 1.984 1.984H56.23a1.982 1.982 0 0 0 1.985-1.984v.328a1.98 1.98 0 0 1-1.985 1.984zm0 0" fill="#030303" fill-opacity=".235"/><path d="M7.277 5.605c-1.199 0-2.172.973-2.172 2.172v46.305a2.17 2.17 0 0 0 2.172 2.172H56.23a2.17 2.17 0 0 0 2.172-2.172V7.777c0-1.199-.972-2.172-2.172-2.172zm0 .375H56.23a1.79 1.79 0 0 1 1.797 1.797v46.305c0 1-.8 1.797-1.797 1.797H7.277c-1 0-1.797-.797-1.797-1.797V7.777c0-1 .797-1.797 1.797-1.797zm0 0" fill="#212121"/><path d="M253.6-98.98a14.926 14.926 0 0 0-14.06 11.03L190.17 93.064 162.577-3.458a14.99 14.99 0 0 0-14.405-10.874h-42.34A14.908 14.908 0 0 0 92.68-6.895a14.894 14.894 0 0 0 0 15.124c2.718 4.687 7.749 7.499 13.155 7.436h31.028l39.215 137.3c1.844 6.468 7.78 10.905 14.499 10.874 6.749-.063 12.623-4.562 14.404-11.062l46.777-171.514 19.28 96.428c1.374 6.843 7.28 11.842 14.248 12.061 6.968.219 13.155-4.406 14.968-11.124l26.247-98.46 18.655 87.149a15.017 15.017 0 0 0 14.686 11.842h42.34a14.908 14.908 0 0 0 13.154-7.436c2.719-4.656 2.719-10.437 0-15.124a15.037 15.037 0 0 0-13.155-7.437h-30.216l-29.215-136.3c-1.47-6.78-7.375-11.686-14.28-11.842a14.959 14.959 0 0 0-14.874 11.124L287.848 8.697 268.724-86.95c-1.437-7.155-7.843-12.249-15.123-12.03zm0 0" transform="translate(0 26.878) scale(.12501)" fill-rule="evenodd" fill="url(#g)" stroke-width="3" stroke-linecap="round" stroke-linejoin="round" stroke="#212121"/></svg>
